X:20026
T:Three Jolly Sheepskins
R:Polka
C:Trad.
O:England
Z:Paul Hardy's Session Tunebook 2022 (see www.paulhardy.net). Creative Commons cc by-nc-sa licenced.
M:2/2
L:1/8
Q:1/4=140
K:G
cB|"D"A2 D2 A2 D2|"C"c2c2 "G"BcdB|"D"A2D2A2D2|"D7"DcBA "G"G2:|
|:BA|"G"GABc dedB|"D7"cdcA "G"BcBA|GABc dcdg|"D7"ecAF "G"G2:|

